X:2543
T:Tink A Tink
C:anon.
O:England
N:Unusual third bit,(to me anyway)
R:Reel
Z:C.G.P/JA
F:http://abc.musicaviva.com/tunes/england/tink-a-tink.abc
%Posted at abcusers Jan 2nd 2001 by Johnny Adams.
M:4/4
L:1/8
K:G
(3DEF|:G2dBG2dB|cdcB AFDF|G2dBG2dB|1cAGF GFED:|2cAGF G2 Bc||
|:d2gf edcB|ABcd BGGB|d2gf edcB|1cAdF GABc:|2cAdF G3 |]
W:
W:
W:  From Musica Viva - http://www.musicaviva.com
W:  the Internet center for free sheet music downloads.

